COLOR/categories 16/16/applications-office.svg

<svg height="16" width="16" xmlns="http://www.w3.org/2000/svg"><path d="m4.8550578.50000596c-3.04166 0-3.36894.30899-3.35403 3.32331004v4.17669 4.17668c-.0149 3.01433.31237 3.32332 3.35403 3.32332h6.2914602c3.04167 0 3.35404-.30895 3.35404-3.32332v-4.17668-4.17669c0-3.01436004-.31238-3.32331004-3.35404-3.32331004z" fill="#5884f4"/><ellipse cx="7.972268" cy="6.503002" fill="none" rx="1.84659" ry="1.999999" stroke="#fff" stroke-dashoffset="1" stroke-linecap="round" stroke-linejoin="round"/><path d="m4.2506178 12.502996c-.042-1.69571.9375-2.5 3.75-2.5 2.8125002 0 3.7920102.74129 3.7500002 2.5z" fill="none" stroke="#fff" stroke-dashoffset="1" stroke-linejoin="round"/><path d="m4.8554688.5c-3.04166 0-3.3684257.30989871-3.3535157 3.3242188v.5c-.01491-3.0143201.3118557-3.3242188 3.3535157-3.3242188h6.2910152c3.04166 0 3.353516.3098588 3.353516 3.3242188v-.5c0-3.01436009-.311856-3.3242188-3.353516-3.3242188z" fill="#fff" opacity=".3"/><path d="m1.5019531 11.675781v.5c-.0149 3.01433.3118557 3.324219 3.3535157 3.324219h6.2910152c3.04167 0 3.353516-.309849 3.353516-3.324219v-.5c0 3.01437-.311846 3.324219-3.353516 3.324219h-6.2910152c-3.0416601 0-3.3684157-.309889-3.3535157-3.324219z" opacity=".2"/></svg>

<?xml version="1.0" encoding="UTF-8" standalone="no"?>
<svg
   xmlns:osb="http://www.openswatchbook.org/uri/2009/osb"
   xmlns:dc="http://purl.org/dc/elements/1.1/"
   xmlns:cc="http://creativecommons.org/ns#"
   xmlns:rdf="http://www.w3.org/1999/02/22-rdf-syntax-ns#"
   xmlns:svg="http://www.w3.org/2000/svg"
   xmlns="http://www.w3.org/2000/svg"
   xmlns:sodipodi="http://sodipodi.sourceforge.net/DTD/sodipodi-0.dtd"
   xmlns:inkscape="http://www.inkscape.org/namespaces/inkscape"
   height="16"
   id="svg7384"
   version="1.1"
   width="16"
   sodipodi:docname="address-book-app.svg"
   inkscape:version="0.92.4 (5da689c313, 2019-01-14)">
  <sodipodi:namedview
     pagecolor="#ffffff"
     bordercolor="#666666"
     borderopacity="1"
     objecttolerance="10"
     gridtolerance="10"
     guidetolerance="10"
     inkscape:pageopacity="0"
     inkscape:pageshadow="2"
     inkscape:window-width="1920"
     inkscape:window-height="1016"
     id="namedview24"
     showgrid="false"
     inkscape:zoom="52.437504"
     inkscape:cx="7.9999995"
     inkscape:cy="7.9999995"
     inkscape:window-x="0"
     inkscape:window-y="27"
     inkscape:window-maximized="1"
     inkscape:current-layer="svg7384" />
  <metadata
     id="metadata20854">
    <rdf:RDF>
      <cc:Work
         rdf:about="">
        <dc:title />
        <dc:format>image/svg+xml</dc:format>
        <dc:type
           rdf:resource="http://purl.org/dc/dcmitype/StillImage" />
      </cc:Work>
    </rdf:RDF>
  </metadata>
  <defs
     id="defs7386">
    <linearGradient
       id="linearGradient5606"
       osb:paint="solid">
      <stop
         id="stop5608"
         offset="0"
         style="stop-color:#000000;stop-opacity:1;" />
    </linearGradient>
    <linearGradient
       id="linearGradient4526"
       osb:paint="solid">
      <stop
         id="stop4528"
         offset="0"
         style="stop-color:#ffffff;stop-opacity:1;" />
    </linearGradient>
    <linearGradient
       id="linearGradient3600-4"
       osb:paint="gradient">
      <stop
         id="stop3602-7"
         offset="0"
         style="stop-color:#f4f4f4;stop-opacity:1" />
      <stop
         id="stop3604-6"
         offset="1"
         style="stop-color:#dbdbdb;stop-opacity:1" />
    </linearGradient>
    <clipPath
       clipPathUnits="userSpaceOnUse"
       id="clipPath983">
      <path
         sodipodi:nodetypes="scccssscsss"
         inkscape:connector-curvature="0"
         id="path985"
         d="m 325.09646,237 c -2.80769,0 -3.10979,0.28839 -3.09603,3.10176 V 244 v 3.89824 c -0.0138,2.81337 0.28834,3.10176 3.09603,3.10176 h 5.8075 C 333.71166,251 334,250.71165 334,247.89824 V 244 240.10176 C 334,237.28836 333.71165,237 330.90396,237 Z"
         style="color:#000000;display:inline;overflow:visible;visibility:visible;opacity:1;fill:#46a926;fill-opacity:1;fill-rule:nonzero;stroke:none;stroke-width:2;stroke-miterlimit:4;stroke-dasharray:none;stroke-opacity:1;marker:none;enable-background:accumulate" />
    </clipPath>
    <linearGradient
       id="linearGradient3650-7-9">
      <stop
         style="stop-color:#5884f4;stop-opacity:1"
         offset="0"
         id="stop4366-9" />
      <stop
         id="stop4368"
         offset="1"
         style="stop-color:#80a3fa;stop-opacity:1" />
    </linearGradient>
    <clipPath
       clipPathUnits="userSpaceOnUse"
       id="clipPath983-3">
      <path
         sodipodi:nodetypes="scccssscsss"
         inkscape:connector-curvature="0"
         id="path985-6"
         d="m 325.09646,237 c -2.80769,0 -3.10979,0.28839 -3.09603,3.10176 V 244 v 3.89824 c -0.0138,2.81337 0.28834,3.10176 3.09603,3.10176 h 5.8075 C 333.71166,251 334,250.71165 334,247.89824 V 244 240.10176 C 334,237.28836 333.71165,237 330.90396,237 Z"
         style="color:#000000;display:inline;overflow:visible;visibility:visible;opacity:1;fill:#46a926;fill-opacity:1;fill-rule:nonzero;stroke:none;stroke-width:2;stroke-miterlimit:4;stroke-dasharray:none;stroke-opacity:1;marker:none;enable-background:accumulate" />
    </clipPath>
  </defs>
  <path
     style="color:#000000;display:inline;overflow:visible;visibility:visible;fill:#5884f4;fill-opacity:1;fill-rule:nonzero;stroke:none;stroke-width:1;marker:none;enable-background:accumulate"
     d="m 4.8550578,0.50000596 c -3.04166,0 -3.36894,0.30899 -3.35403,3.32331004 v 4.17669 4.17668 c -0.0149,3.01433 0.31237,3.32332 3.35403,3.32332 h 6.2914602 c 3.04167,0 3.35404,-0.30895 3.35404,-3.32332 v -4.17668 -4.17669 c 0,-3.01436004 -0.31238,-3.32331004 -3.35404,-3.32331004 z"
     id="path918"
     inkscape:connector-curvature="0"
     sodipodi:nodetypes="scccssscsss" />
  <ellipse
     ry="1.9999989"
     rx="1.8465903"
     cy="6.5030022"
     cx="7.9722681"
     id="ellipse1029"
     style="display:inline;opacity:1;fill:none;fill-opacity:1;stroke:#ffffff;stroke-width:1;stroke-linecap:round;stroke-linejoin:round;stroke-miterlimit:4;stroke-dasharray:none;stroke-dashoffset:1;stroke-opacity:1;enable-background:new" />
  <path
     sodipodi:nodetypes="cscc"
     inkscape:connector-curvature="0"
     id="path1031"
     d="m 4.2506178,12.502996 c -0.042,-1.69571 0.9375,-2.5 3.75,-2.5 2.8125002,0 3.7920102,0.74129 3.7500002,2.5 z"
     style="display:inline;opacity:1;fill:none;fill-opacity:1;stroke:#ffffff;stroke-width:1;stroke-linecap:butt;stroke-linejoin:round;stroke-miterlimit:4;stroke-dasharray:none;stroke-dashoffset:1;stroke-opacity:1;enable-background:new" />
  <path
     style="color:#000000;display:inline;overflow:visible;visibility:visible;fill:#ffffff;fill-opacity:1;fill-rule:nonzero;stroke:none;stroke-width:1;marker:none;enable-background:accumulate;opacity:0.3"
     d="M 4.8554688 0.5 C 1.8138088 0.5 1.4870431 0.80989871 1.5019531 3.8242188 L 1.5019531 4.3242188 C 1.4870431 1.3098987 1.8138088 1 4.8554688 1 L 11.146484 1 C 14.188144 1 14.5 1.3098588 14.5 4.3242188 L 14.5 3.8242188 C 14.5 0.80985871 14.188144 0.5 11.146484 0.5 L 4.8554688 0.5 z "
     id="path838" />
  <path
     style="color:#000000;display:inline;overflow:visible;visibility:visible;fill:#000000;fill-opacity:1;fill-rule:nonzero;stroke:none;stroke-width:1;marker:none;enable-background:accumulate;opacity:0.2"
     d="M 1.5019531 11.675781 L 1.5019531 12.175781 C 1.4870531 15.190111 1.8138088 15.5 4.8554688 15.5 L 11.146484 15.5 C 14.188154 15.5 14.5 15.190151 14.5 12.175781 L 14.5 11.675781 C 14.5 14.690151 14.188154 15 11.146484 15 L 4.8554688 15 C 1.8138087 15 1.4870531 14.690111 1.5019531 11.675781 z "
     id="path843" />
</svg>
